src/Icon/svgs/VolumeMute.svg

<svg width="24" height="24" viewBox="0 0 24 24" fill="none" xmlns="http://www.w3.org/2000/svg">
<path d="M20.5 20L19 21.5L13 15.5V20C13 20.3688 12.797 20.7077 12.4719 20.8817C12.1467 21.0557 11.7522 21.0366 11.4453 20.8321L5.69722 17L2 17C1.44772 17 1 16.5523 1 16V8C1 7.44772 1.44772 7 2 7L4.5 7L1.5 4L3 2.5L20.5 20Z" fill="#1B1C1D"/>
<path d="M23 12C23 14.2194 22.462 16.2948 21.5316 18.0316L20.0413 16.5413C20.6492 15.2125 21 13.6627 21 12C21 8.98783 19.8488 6.34636 18.1031 4.71748L19.6791 3.45672C21.7136 5.48075 23 8.56811 23 12Z" fill="#1B1C1D"/>
<path d="M18.4937 14.9937C18.8206 14.067 19 13.0559 19 12C19 9.58934 18.0649 7.41238 16.5748 5.9402L14.9973 7.20219C16.2072 8.29171 17 10.0257 17 12C17 12.472 16.9547 12.9302 16.8692 13.3692L18.4937 14.9937Z" fill="#1B1C1D"/>
<path d="M13 9.5V4C13 3.63121 12.797 3.29235 12.4719 3.11833C12.1467 2.94431 11.7522 2.96338 11.4453 3.16795L8.57889 5.07889L13 9.5Z" fill="#1B1C1D"/>
</svg>

<svg xmlns="http://www.w3.org/2000/svg" width="24" height="24" fill="#1b1c1d"  xmlns:v="https://vecta.io/nano"><path d="M20.5 20L19 21.5l-6-6V20a1 1 0 0 1-1.555.832L5.697 17H2a1 1 0 0 1-1-1V8a1 1 0 0 1 1-1h2.5l-3-3L3 2.5 20.5 20zm2.5-8c0 2.219-.538 4.295-1.468 6.032l-1.49-1.49C20.649 15.213 21 13.663 21 12c0-3.012-1.151-5.654-2.897-7.283l1.576-1.261C21.714 5.481 23 8.568 23 12zm-4.506 2.994c.327-.927.506-1.938.506-2.994 0-2.411-.935-4.588-2.425-6.06l-1.578 1.262C16.207 8.292 17 10.026 17 12a7.16 7.16 0 0 1-.131 1.369l1.625 1.625zM13 9.5V4a1 1 0 0 0-1.555-.832L8.579 5.079 13 9.5z"/></svg>
